X:1
T:Title
%%score ( 1 2 ) { 3 | 4 }
L:1/8
Q:1/4=105
M:4/4
K:F
V:1 treble nm="Grand Piano, Soprano"
V:2 treble 
V:3 treble nm="Choir Pad, We Take the Guilty Sinner’s"
V:4 bass 
V:1
 FG [FA]2 [FA]2 [FA]2 | [EG]2 F2- F/ z/ [FG] [FA]2 | AB [Fc]2- [Fc][Fd] [Fc]2 | [FA]2 F2 F2 [EG]2 | %4
w: By~H.~F.~Willilams,~1881 * * * *||||
 cB [FA]2 [FA]2 [FA]2 | [EG]2 F2- F/ z/ [FG] [FA]2 | [FA][GB] [Ac]2- [Ac][Bd] [Ac]2 | %7
w: |||
 [FB]2 [FA]2 [CG]2 [CF]2 | [FA][GB] [Ac]2- [Ac][Bd] [Ac]2 | [FA]2 F2 [EG]2 [FA]2 | %10
w: |||
 [FA]2 [EB]2- [EB][EB] [EB]2 | [EG]2 [FA]2 [FB]2 [Fc]2 | AB [Fc]2- [Fc][Fd] [Fc]2 | %13
w: |||
 [FA]2 [FB]2 [Fc]2 [Fd]2 | [Fd]2 [Ac]2- [Ac][Bd] [Ac]2 | [FB]2 [FA]2 [CG]2 [CF]2- | [CF]6 z2 |] %17
w: ||||
V:2
 x8 | x8 | F2 z2 z4 | x8 | E2 z2 z4 | x8 | x8 | x8 | x8 | x8 | x8 | x8 | F2 z2 z4 | x8 | x8 | x8 | %16
 x8 |] %17
V:3
 A,B, C2 C2 C2 | B,2 A,2- A,B, C2 | CB, A,2- A,B, A,2 | F,2 A,2 A,2[K:treble] C2 | C2 C2 C2 C2 | %5
 B,2 A,2- A,B, C2 | C2 C2- CC C2 | D2 C2[K:bass] B,2 A,2 | F,2 F,2- F,/ z/ F, F,2 | %9
 F,2 A,2[K:treble] C2 C2 | C2 C2- CC C2 | C2 C2 C2 C2 | C[K:bass]B, A,2- A,B, A,2 | %13
 C2 B,2 A,2 B,2 | B,2 F,2- F,/ z/ F,[K:treble] C2 | D2 C2 B,2 A,2- | A,6 z2 |] %17
V:4
 F,2 F,2 F,2 F,2 | C,2 F,2- F,F, F,2 | F,2 F,2- F,F, F,2 | z2 D,2 D,2 C,2 | C,2 F,2 F,2 F,2 | %5
 C,2 F,2- F,F, F,2 | F,2 F,2- F,F, F,2 | B,,2 C,2 C,2 F,2 | z8 | z2 D,2 C,2 F,2 | %10
 F,2 G,2- G,G, G,2 | C,2 F,2 G,2 A,2 | F,2 F,2- F,F, F,2 | _E,2 D,2 C,2 B,,2 | B,,2 z2 z2 F,2 | %15
 B,,2 C,2 C,2 F,2- | F,6 z2 |] %17

